X:15
T:Munterschottis
T:Schottis fr{\aa}n Hammarn\"aset
R:schottis
A:J\"amtland
Z:id:hn-schottis-15
M:C|
K:Gm
D2|G>^FGA B>ABc|d>^cd=e f2a2|a>g=eg ^f2d2|d>cAc BAG^F|
G>^FGA B>ABc|d>^cd=e f2a2|a>g=eg ^f2d2|d>cAB G2:|
|:=B2|d>c=Bd g2d2|d>cAc _B2G2|A>G^FA d2d2|d>cAc B2G2|
d>c=Bd g2d2|d>cAc _B2G2|A>G^FA d2d2|d>cAB G2:|
